X: 9
T: Concertina, The
Z: Fernando Durbán Galnares
S: https://thesession.org/tunes/18#setting47037
R: reel
M: 4/4
L: 1/8
K: Dmaj
|:FG|"D"A2FA BAFG|A2 FA BAFA|"A7"BAcA BAcA|BAcA BAFG|
"D"A2FA BAFG|A2 FA BAFE|FABc "G"dcdB|"A7"AFEF "D"D2:|
|:FG|"D"Ad (3ded Ad (3ded|AddA BAFA|"Em"BAcA BAcA|"A7"BAcA BAFG|
"D"Ad (3ded Ad (3ded|AddA BAFE|FABc "G"dcdB|"A7"AFEF "D"D2:|

